src/images/rakuten-symphony-logocloud.svg

<?xml version="1.0" encoding="utf-8"?>
<svg version="1.1" id="Layer_1" xmlns="http://www.w3.org/2000/svg" xmlns:xlink="http://www.w3.org/1999/xlink" x="0px" y="0px"
	 viewBox="0 0 213.77 29.97" style="enable-background:new 0 0 213.77 29.97;" xml:space="preserve">
<g>
	<g>
		<g>
			<g>
				<g>
					<path d="M101.21,21.23c-1.42,0-2.71-0.31-3.85-0.92c-1.14-0.61-2.03-1.47-2.66-2.57l1.38-1.67c1.26,2.04,2.96,3.05,5.11,3.05
						c1.1,0,1.95-0.24,2.55-0.72c0.6-0.48,0.91-1.13,0.91-1.96c0-0.74-0.25-1.35-0.74-1.85c-0.5-0.49-1.27-0.91-2.34-1.26
						l-1.89-0.59c-1.48-0.47-2.55-1.07-3.23-1.81c-0.68-0.74-1.01-1.66-1.01-2.76c0-0.94,0.24-1.76,0.72-2.49
						c0.48-0.72,1.14-1.29,1.99-1.7c0.85-0.41,1.81-0.62,2.89-0.62c1.23,0,2.32,0.24,3.27,0.72c0.95,0.48,1.71,1.17,2.27,2.07
						l-1.38,1.67c-0.92-1.57-2.3-2.35-4.14-2.35c-1.03,0-1.84,0.23-2.45,0.68C98,6.61,97.7,7.23,97.7,8.02
						c0,0.67,0.22,1.21,0.66,1.62c0.44,0.41,1.19,0.79,2.26,1.13l1.89,0.59c2.94,0.94,4.41,2.58,4.41,4.94
						c0,1.48-0.52,2.67-1.57,3.57C104.3,20.78,102.92,21.23,101.21,21.23z" style="fill:rgb(156,163,175);"/>
					<path d="M109.64,26.07l3.7-7.46l-5.54-11.43h2.46l4.27,9.24l4.24-9.24h2.3l-9.16,18.88H109.64z" style="fill:rgb(156,163,175);"/>
					<path d="M122.53,20.93V7.16h1.86l0.24,2.54c0.45-0.86,1.05-1.55,1.81-2.05c0.76-0.5,1.59-0.76,2.51-0.76
						c1.04,0,1.94,0.28,2.69,0.84c0.75,0.56,1.29,1.37,1.64,2.43c0.43-0.99,1.07-1.78,1.91-2.38c0.84-0.59,1.77-0.89,2.8-0.89
						c1.44,0,2.59,0.52,3.45,1.57c0.86,1.04,1.28,2.56,1.28,4.54v7.94h-2.16V13.1c0-1.33-0.28-2.35-0.84-3.05
						c-0.56-0.7-1.32-1.05-2.27-1.05c-0.74,0-1.39,0.21-1.96,0.63c-0.57,0.42-1.01,0.99-1.32,1.69c-0.32,0.7-0.47,1.47-0.47,2.3
						v7.32h-2.16V13.1c0-1.33-0.28-2.35-0.84-3.05c-0.56-0.7-1.31-1.05-2.24-1.05c-0.76,0-1.41,0.22-1.97,0.65
						c-0.56,0.43-1,1-1.31,1.69c-0.32,0.69-0.47,1.45-0.47,2.28v7.32H122.53z" style="fill:rgb(156,163,175);"/>
					<path d="M144.99,26.07V7.16h1.86l0.24,2.59c0.41-0.86,1.04-1.56,1.86-2.08c0.83-0.52,1.77-0.78,2.81-0.78
						c1.15,0,2.18,0.31,3.09,0.92c0.91,0.61,1.63,1.45,2.16,2.53c0.53,1.07,0.8,2.31,0.8,3.71c0,1.39-0.27,2.62-0.8,3.7
						c-0.53,1.08-1.25,1.93-2.16,2.54c-0.91,0.61-1.94,0.92-3.09,0.92c-1.05,0-1.97-0.26-2.78-0.77c-0.81-0.51-1.42-1.2-1.84-2.07
						v7.7H144.99z M151.37,19.1c0.81,0,1.54-0.21,2.18-0.63c0.64-0.42,1.14-1.02,1.51-1.78c0.37-0.77,0.55-1.64,0.55-2.63
						c0-1.01-0.19-1.89-0.55-2.65c-0.37-0.76-0.87-1.35-1.51-1.77c-0.64-0.42-1.36-0.63-2.18-0.63c-0.81,0-1.54,0.21-2.18,0.63
						c-0.64,0.42-1.14,1.01-1.51,1.77c-0.37,0.76-0.55,1.64-0.55,2.65c0,0.99,0.18,1.87,0.55,2.63c0.37,0.77,0.87,1.36,1.51,1.78
						C149.83,18.88,150.55,19.1,151.37,19.1z" style="fill:rgb(156,163,175);"/>
					<path d="M159.55,20.93V1.75h2.16v7.92c0.45-0.86,1.06-1.54,1.84-2.04c0.77-0.49,1.65-0.74,2.62-0.74c1.5,0,2.68,0.52,3.57,1.57
						c0.88,1.04,1.32,2.56,1.32,4.54v7.94h-2.16V13.1c0-1.33-0.29-2.35-0.88-3.05c-0.59-0.7-1.37-1.05-2.36-1.05
						c-0.77,0-1.46,0.21-2.05,0.63c-0.59,0.42-1.06,0.99-1.39,1.69c-0.33,0.7-0.5,1.47-0.5,2.3v7.32H159.55z" style="fill:rgb(156,163,175);"/>
					<path d="M179.29,21.26c-1.26,0-2.39-0.31-3.38-0.92c-0.99-0.61-1.77-1.46-2.35-2.55c-0.58-1.09-0.86-2.34-0.86-3.74
						c0-1.42,0.29-2.67,0.86-3.75c0.58-1.08,1.36-1.93,2.35-2.54c0.99-0.61,2.12-0.92,3.38-0.92c1.26,0,2.39,0.31,3.38,0.92
						c0.99,0.61,1.77,1.46,2.35,2.54c0.58,1.08,0.87,2.33,0.87,3.75c0,1.4-0.29,2.65-0.87,3.74c-0.58,1.09-1.36,1.94-2.35,2.55
						C181.68,20.95,180.55,21.26,179.29,21.26z M179.29,19.15c1.28,0,2.33-0.46,3.15-1.39c0.82-0.93,1.23-2.17,1.23-3.71
						c0-1.55-0.41-2.79-1.23-3.71c-0.82-0.93-1.87-1.39-3.15-1.39c-1.26,0-2.31,0.46-3.14,1.39c-0.83,0.93-1.24,2.17-1.24,3.71
						c0,1.55,0.41,2.79,1.24,3.71C176.99,18.69,178.03,19.15,179.29,19.15z" style="fill:rgb(156,163,175);"/>
					<path d="M187.61,20.93V7.16h1.86l0.24,2.57c0.45-0.88,1.07-1.58,1.85-2.08c0.78-0.5,1.67-0.76,2.66-0.76
						c1.5,0,2.68,0.52,3.57,1.57c0.88,1.04,1.32,2.56,1.32,4.54v7.94h-2.16V13.1c0-1.33-0.29-2.35-0.88-3.05
						c-0.59-0.7-1.37-1.05-2.36-1.05c-0.77,0-1.46,0.21-2.05,0.63c-0.59,0.42-1.06,0.99-1.39,1.69c-0.33,0.7-0.5,1.47-0.5,2.3v7.32
						H187.61z" style="fill:rgb(156,163,175);"/>
					<path d="M201.51,26.07l3.7-7.46l-5.54-11.43h2.46l4.27,9.24l4.24-9.24h2.3l-9.16,18.88H201.51z" style="fill:rgb(156,163,175);"/>
				</g>
				<g>
					<g>
						<g>
							<polygon points="72.36,23.65 18.81,23.65 23.07,27.92" style="fill:rgb(156,163,175);"/>
							<path d="M23.77,6.41v0.64c-0.99-0.63-1.89-1-3.11-1c-3.75,0-6.6,3.42-6.6,7.62c0,4.2,2.85,7.62,6.6,7.62
								c1.22,0,2.11-0.37,3.11-1v0.64h3.3V6.41H23.77z M20.66,17.79c-1.85,0-3.2-1.82-3.2-4.12c0-2.3,1.35-4.12,3.2-4.12
								c1.85,0,3.16,1.82,3.16,4.12C23.82,15.97,22.51,17.79,20.66,17.79z" style="fill:rgb(156,163,175);"/>
							<path d="M50.18,6.41v8.53c0,1.6-1.1,2.95-2.7,2.95c-1.6,0-2.7-1.35-2.7-2.95V6.41h-3.3v8.53c0,3.5,2.4,6.35,5.9,6.35
								c1.62,0,2.8-0.9,2.8-0.9v0.54h3.3V6.41H50.18z" style="fill:rgb(156,163,175);"/>
							<path d="M80.91,20.93V12.4c0-1.6,1.1-2.95,2.7-2.95c1.6,0,2.7,1.35,2.7,2.95v8.53h3.3V12.4c0-3.5-2.4-6.35-5.9-6.35
								c-1.62,0-2.8,0.9-2.8,0.9V6.41h-3.3v14.52H80.91z" style="fill:rgb(156,163,175);"/>
							<path d="M4.55,20.93v-5.63h2.44l4.22,5.63h4.32l-5.1-6.79c1.59-1.14,2.63-3,2.63-5.1c0-3.45-2.81-6.25-6.26-6.25h-5.7v18.14
								H4.55z M4.55,6.24H6.8c1.55,0,2.82,1.26,2.82,2.81c0,1.56-1.27,2.81-2.82,2.81H4.55V6.24z" style="fill:rgb(156,163,175);"/>
							<path d="M62.37,17.5c-0.3,0.2-0.67,0.36-1.1,0.36c-0.54,0-1.55-0.41-1.55-1.78V9.86h2.82V6.41h-2.82l0-3.62h-3.3l0,3.62
								h-1.74v3.45h1.74v6.27c0,3.24,2.44,5.18,4.9,5.18c0.92,0,2.19-0.3,3.23-0.91L62.37,17.5z" style="fill:rgb(156,163,175);"/>
							<polygon points="35.26,13.22 40.92,6.41 36.3,6.41 32.34,11.47 32.34,1.59 28.95,1.59 28.95,20.93 32.34,20.93 32.34,14.97 
								37.2,20.93 41.83,20.93" style="fill:rgb(156,163,175);"/>
							<path d="M69.99,6.04c-3.82,0-6.55,3.35-6.55,7.63c0,4.5,3.44,7.63,6.88,7.63c1.74,0,3.97-0.6,5.84-3.25l-2.91-1.68
								c-2.25,3.32-6.01,1.63-6.44-1.68l9.5,0C77.11,9.47,73.74,6.04,69.99,6.04z M72.87,11.8h-5.94C67.62,8.4,72.22,8.2,72.87,11.8
								z" style="fill:rgb(156,163,175);"/>
						</g>
					</g>
				</g>
			</g>
		</g>
	</g>
</g>
</svg>

<?xml version="1.0" encoding="UTF-8" standalone="no"?>
<!DOCTYPE svg PUBLIC "-//W3C//DTD SVG 1.1//EN" "http://www.w3.org/Graphics/SVG/1.1/DTD/svg11.dtd">
<svg width="100%" height="100%" viewBox="0 0 127 48" version="1.1" xmlns="http://www.w3.org/2000/svg" xmlns:xlink="http://www.w3.org/1999/xlink" xml:space="preserve" xmlns:serif="http://www.serif.com/" style="fill-rule:evenodd;clip-rule:evenodd;stroke-linejoin:round;stroke-miterlimit:2;">
    <g transform="matrix(0.599509,0,0,0.599509,-0.65946,15.1542)">
        <g>
            <g>
                <g>
                    <g>
                        <path d="M101.21,21.23C99.79,21.23 98.5,20.92 97.36,20.31C96.22,19.7 95.33,18.84 94.7,17.74L96.08,16.07C97.34,18.11 99.04,19.12 101.19,19.12C102.29,19.12 103.14,18.88 103.74,18.4C104.34,17.92 104.65,17.27 104.65,16.44C104.65,15.7 104.4,15.09 103.91,14.59C103.41,14.1 102.64,13.68 101.57,13.33L99.68,12.74C98.2,12.27 97.13,11.67 96.45,10.93C95.77,10.19 95.44,9.27 95.44,8.17C95.44,7.23 95.68,6.41 96.16,5.68C96.64,4.96 97.3,4.39 98.15,3.98C99,3.57 99.96,3.36 101.04,3.36C102.27,3.36 103.36,3.6 104.31,4.08C105.26,4.56 106.02,5.25 106.58,6.15L105.2,7.82C104.28,6.25 102.9,5.47 101.06,5.47C100.03,5.47 99.22,5.7 98.61,6.15C98,6.61 97.7,7.23 97.7,8.02C97.7,8.69 97.92,9.23 98.36,9.64C98.8,10.05 99.55,10.43 100.62,10.77L102.51,11.36C105.45,12.3 106.92,13.94 106.92,16.3C106.92,17.78 106.4,18.97 105.35,19.87C104.3,20.78 102.92,21.23 101.21,21.23Z" style="fill:rgb(156,163,175);fill-rule:nonzero;"/>
                        <path d="M109.64,26.07L113.34,18.61L107.8,7.18L110.26,7.18L114.53,16.42L118.77,7.18L121.07,7.18L111.91,26.06L109.64,26.06L109.64,26.07Z" style="fill:rgb(156,163,175);fill-rule:nonzero;"/>
                        <path d="M122.53,20.94L122.53,7.16L124.39,7.16L124.63,9.7C125.08,8.84 125.68,8.15 126.44,7.65C127.2,7.15 128.03,6.89 128.95,6.89C129.99,6.89 130.89,7.17 131.64,7.73C132.39,8.29 132.93,9.1 133.28,10.16C133.71,9.17 134.35,8.38 135.19,7.78C136.03,7.19 136.96,6.89 137.99,6.89C139.43,6.89 140.58,7.41 141.44,8.46C142.3,9.5 142.72,11.02 142.72,13L142.72,20.94L140.56,20.94L140.56,13.1C140.56,11.77 140.28,10.75 139.72,10.05C139.16,9.35 138.4,9 137.45,9C136.71,9 136.06,9.21 135.49,9.63C134.92,10.05 134.48,10.62 134.17,11.32C133.85,12.02 133.7,12.79 133.7,13.62L133.7,20.94L131.54,20.94L131.54,13.1C131.54,11.77 131.26,10.75 130.7,10.05C130.14,9.35 129.39,9 128.46,9C127.7,9 127.05,9.22 126.49,9.65C125.93,10.08 125.49,10.65 125.18,11.34C124.86,12.03 124.71,12.79 124.71,13.62L124.71,20.94L122.53,20.94Z" style="fill:rgb(156,163,175);fill-rule:nonzero;"/>
                        <path d="M144.99,26.07L144.99,7.16L146.85,7.16L147.09,9.75C147.5,8.89 148.13,8.19 148.95,7.67C149.78,7.15 150.72,6.89 151.76,6.89C152.91,6.89 153.94,7.2 154.85,7.81C155.76,8.42 156.48,9.26 157.01,10.34C157.54,11.41 157.81,12.65 157.81,14.05C157.81,15.44 157.54,16.67 157.01,17.75C156.48,18.83 155.76,19.68 154.85,20.29C153.94,20.9 152.91,21.21 151.76,21.21C150.71,21.21 149.79,20.95 148.98,20.44C148.17,19.93 147.56,19.24 147.14,18.37L147.14,26.07L144.99,26.07ZM151.37,19.1C152.18,19.1 152.91,18.89 153.55,18.47C154.19,18.05 154.69,17.45 155.06,16.69C155.43,15.92 155.61,15.05 155.61,14.06C155.61,13.05 155.42,12.17 155.06,11.41C154.69,10.65 154.19,10.06 153.55,9.64C152.91,9.22 152.19,9.01 151.37,9.01C150.56,9.01 149.83,9.22 149.19,9.64C148.55,10.06 148.05,10.65 147.68,11.41C147.31,12.17 147.13,13.05 147.13,14.06C147.13,15.05 147.31,15.93 147.68,16.69C148.05,17.46 148.55,18.05 149.19,18.47C149.83,18.88 150.55,19.1 151.37,19.1Z" style="fill:rgb(156,163,175);fill-rule:nonzero;"/>
                        <path d="M159.55,20.94L159.55,1.75L161.71,1.75L161.71,9.67C162.16,8.81 162.77,8.13 163.55,7.63C164.32,7.14 165.2,6.89 166.17,6.89C167.67,6.89 168.85,7.41 169.74,8.46C170.62,9.5 171.06,11.02 171.06,13L171.06,20.94L168.9,20.94L168.9,13.1C168.9,11.77 168.61,10.75 168.02,10.05C167.43,9.35 166.65,9 165.66,9C164.89,9 164.2,9.21 163.61,9.63C163.02,10.05 162.55,10.62 162.22,11.32C161.89,12.02 161.72,12.79 161.72,13.62L161.72,20.94L159.55,20.94Z" style="fill:rgb(156,163,175);fill-rule:nonzero;"/>
                        <path d="M179.29,21.26C178.03,21.26 176.9,20.95 175.91,20.34C174.92,19.73 174.14,18.88 173.56,17.79C172.98,16.7 172.7,15.45 172.7,14.05C172.7,12.63 172.99,11.38 173.56,10.3C174.14,9.22 174.92,8.37 175.91,7.76C176.9,7.15 178.03,6.84 179.29,6.84C180.55,6.84 181.68,7.15 182.67,7.76C183.66,8.37 184.44,9.22 185.02,10.3C185.6,11.38 185.89,12.63 185.89,14.05C185.89,15.45 185.6,16.7 185.02,17.79C184.44,18.88 183.66,19.73 182.67,20.34C181.68,20.95 180.55,21.26 179.29,21.26ZM179.29,19.15C180.57,19.15 181.62,18.69 182.44,17.76C183.26,16.83 183.67,15.59 183.67,14.05C183.67,12.5 183.26,11.26 182.44,10.34C181.62,9.41 180.57,8.95 179.29,8.95C178.03,8.95 176.98,9.41 176.15,10.34C175.32,11.27 174.91,12.51 174.91,14.05C174.91,15.6 175.32,16.84 176.15,17.76C176.99,18.69 178.03,19.15 179.29,19.15Z" style="fill:rgb(156,163,175);fill-rule:nonzero;"/>
                        <path d="M187.61,20.94L187.61,7.16L189.47,7.16L189.71,9.73C190.16,8.85 190.78,8.15 191.56,7.65C192.34,7.15 193.23,6.89 194.22,6.89C195.72,6.89 196.9,7.41 197.79,8.46C198.67,9.5 199.11,11.02 199.11,13L199.11,20.94L196.95,20.94L196.95,13.1C196.95,11.77 196.66,10.75 196.07,10.05C195.48,9.35 194.7,9 193.71,9C192.94,9 192.25,9.21 191.66,9.63C191.07,10.05 190.6,10.62 190.27,11.32C189.94,12.02 189.77,12.79 189.77,13.62L189.77,20.94L187.61,20.94Z" style="fill:rgb(156,163,175);fill-rule:nonzero;"/>
                        <path d="M201.51,26.07L205.21,18.61L199.67,7.18L202.13,7.18L206.4,16.42L210.64,7.18L212.94,7.18L203.78,26.06L201.51,26.06L201.51,26.07Z" style="fill:rgb(156,163,175);fill-rule:nonzero;"/>
                    </g>
                    <g>
                        <g>
                            <g>
                                <path d="M72.36,23.65L18.81,23.65L23.07,27.92L72.36,23.65Z" style="fill:rgb(156,163,175);fill-rule:nonzero;"/>
                                <path d="M23.77,6.41L23.77,7.05C22.78,6.42 21.88,6.05 20.66,6.05C16.91,6.05 14.06,9.47 14.06,13.67C14.06,17.87 16.91,21.29 20.66,21.29C21.88,21.29 22.77,20.92 23.77,20.29L23.77,20.93L27.07,20.93L27.07,6.41L23.77,6.41ZM20.66,17.79C18.81,17.79 17.46,15.97 17.46,13.67C17.46,11.37 18.81,9.55 20.66,9.55C22.51,9.55 23.82,11.37 23.82,13.67C23.82,15.97 22.51,17.79 20.66,17.79Z" style="fill:rgb(156,163,175);fill-rule:nonzero;"/>
                                <path d="M50.18,6.41L50.18,14.94C50.18,16.54 49.08,17.89 47.48,17.89C45.88,17.89 44.78,16.54 44.78,14.94L44.78,6.41L41.48,6.41L41.48,14.94C41.48,18.44 43.88,21.29 47.38,21.29C49,21.29 50.18,20.39 50.18,20.39L50.18,20.93L53.48,20.93L53.48,6.41L50.18,6.41Z" style="fill:rgb(156,163,175);fill-rule:nonzero;"/>
                                <path d="M80.91,20.93L80.91,12.4C80.91,10.8 82.01,9.45 83.61,9.45C85.21,9.45 86.31,10.8 86.31,12.4L86.31,20.93L89.61,20.93L89.61,12.4C89.61,8.9 87.21,6.05 83.71,6.05C82.09,6.05 80.91,6.95 80.91,6.95L80.91,6.41L77.61,6.41L77.61,20.93L80.91,20.93Z" style="fill:rgb(156,163,175);fill-rule:nonzero;"/>
                                <path d="M4.55,20.93L4.55,15.3L6.99,15.3L11.21,20.93L15.53,20.93L10.43,14.14C12.02,13 13.06,11.14 13.06,9.04C13.06,5.59 10.25,2.79 6.8,2.79L1.1,2.79L1.1,20.93L4.55,20.93ZM4.55,6.24L6.8,6.24C8.35,6.24 9.62,7.5 9.62,9.05C9.62,10.61 8.35,11.86 6.8,11.86L4.55,11.86L4.55,6.24Z" style="fill:rgb(156,163,175);fill-rule:nonzero;"/>
                                <path d="M62.37,17.5C62.07,17.7 61.7,17.86 61.27,17.86C60.73,17.86 59.72,17.45 59.72,16.08L59.72,9.86L62.54,9.86L62.54,6.41L59.72,6.41L59.72,2.79L56.42,2.79L56.42,6.41L54.68,6.41L54.68,9.86L56.42,9.86L56.42,16.13C56.42,19.37 58.86,21.31 61.32,21.31C62.24,21.31 63.51,21.01 64.55,20.4L62.37,17.5Z" style="fill:rgb(156,163,175);fill-rule:nonzero;"/>
                                <path d="M35.26,13.22L40.92,6.41L36.3,6.41L32.34,11.47L32.34,1.59L28.95,1.59L28.95,20.93L32.34,20.93L32.34,14.97L37.2,20.93L41.83,20.93L35.26,13.22Z" style="fill:rgb(156,163,175);fill-rule:nonzero;"/>
                                <path d="M69.99,6.04C66.17,6.04 63.44,9.39 63.44,13.67C63.44,18.17 66.88,21.3 70.32,21.3C72.06,21.3 74.29,20.7 76.16,18.05L73.25,16.37C71,19.69 67.24,18 66.81,14.69L76.31,14.69C77.11,9.47 73.74,6.04 69.99,6.04ZM72.87,11.8L66.93,11.8C67.62,8.4 72.22,8.2 72.87,11.8Z" style="fill:rgb(156,163,175);fill-rule:nonzero;"/>
                            </g>
                        </g>
                    </g>
                </g>
            </g>
        </g>
    </g>
</svg>
